material/.icons/material/alpha-b-circle.svg

<svg xmlns="http://www.w3.org/2000/svg" viewBox="0 0 24 24"><path d="M12 2a10 10 0 0110 10 10 10 0 01-10 10A10 10 0 012 12 10 10 0 0112 2m3 8.5V9a2 2 0 00-2-2H9v10h4a2 2 0 002-2v-1.5c0-.8-.7-1.5-1.5-1.5.8 0 1.5-.7 1.5-1.5M13 15h-2v-2h2v2m0-4h-2V9h2v2z"/></svg>

<?xml version="1.0" encoding="UTF-8"?><!DOCTYPE svg PUBLIC "-//W3C//DTD SVG 1.1//EN" "http://www.w3.org/Graphics/SVG/1.1/DTD/svg11.dtd"><svg xmlns="http://www.w3.org/2000/svg" xmlns:xlink="http://www.w3.org/1999/xlink" version="1.1" id="mdi-alpha-b-circle" width="24" height="24" viewBox="0 0 24 24"><path d="M12,2A10,10 0 0,1 22,12A10,10 0 0,1 12,22A10,10 0 0,1 2,12A10,10 0 0,1 12,2M15,10.5V9A2,2 0 0,0 13,7H9V17H13A2,2 0 0,0 15,15V13.5C15,12.7 14.3,12 13.5,12C14.3,12 15,11.3 15,10.5M13,15H11V13H13V15M13,11H11V9H13V11Z" /></svg>
